!!!COM: Corelli, Arcangelo
!!!OTL: 
!!!ONM: Opus 6, No. 4
!!!OMV: 2
!!!CDT: 1653/2/17/-1713/1/8/
!!!OCY: Italia
**kern	**kern	**kern	**kern	**kern	**kern	**kern
*clefC	*clefG	*clefG	*clefG	*clefC	*clefG	*clefG
*k[f#c#]	*k[f#c#]	*k[f#c#]	*k[f#c#]	*k[f#c#]	*k[f#c#]	*k[f#c#]
*b:	*b:	*b:	*b:	*b:	*b:	*b:
*M4/4	*M4/4	*M4/4	*M4/4	*M4/4	*M4/4	*M4/4
=1	=1	=1	=1	=1	=1	=1
1r	1r	8b	8b	8B	8f#	8dd
.	.	8b	8b	8B	8f#	8dd
.	.	8b	8b	8B	8f#	8dd
.	.	8b	8b	8B	8f#	8dd
.	.	8a#	8a#	8A#	8f#	8cc#
.	.	8a#	8a#	8A#	8f#	8cc#
.	.	8a	8a	8A	8f#	8cc#
.	.	8a	8a	8A	8f#	8cc#
=2	=2	=2	=2	=2	=2	=2
1r	1r	8g#	8g#	8G#	8f#	8b
.	.	8g#	8g#	8G#	8f#	8b
.	.	8g	8g	8G	8e	8b
.	.	8g	8g	8G	8e	8b
.	.	8f#	8f#	8F#	8d	8b
.	.	8f#	8f#	8F#	8d	8b
.	.	8f#	8f#	8F#	8c#	8a#
.	.	8f#	8f#	8F#	8c#	8a#
=3	=3	=3	=3	=3	=3	=3
4r	4r	8B	8B	8BB	8d	8b
.	.	8B	8B	8BB	8B	8b
8B	8f#	8f#	8dd	8B	8f#	8dd
8B	8f#	8f#	8dd	8B	8f#	8dd
8B	8g	8e	8cc#	8B	8e	8cc#
8B	8g	8e	8cc#	8B	8e	8cc#
8A	8f#	8f#	8cc#	8A	8f#	8cc#
8A	8f#	8f#	8cc#	8A	8f#	8cc#
=4	=4	=4	=4	=4	=4	=4
8A	8f#	8d#	8b	8A	8d#	8b
8A	8f#	8d#	8b	8A	8d#	8b
8G	8e	8e	8b	8G	8e	8b
8G	8e	8e	8b	8G	8e	8b
8G	8e	8c#	8a	8G	8c#	8a
8G	8e	8c#	8a	8G	8c#	8a
8F#	8d	8d	8a	8F#	8d	8a
8F#	8d	8d	8a	8F#	8d	8a
=5	=5	=5	=5	=5	=5	=5
8E	8g	8d	8g	8E	8d	8g
8E	8g	8d	8g	8E	8d	8g
8AA	8g	8c#	8ee	8AA	8c#	8ee
8AA	8g	8c#	8ee	8AA	8c#	8ee
8D	8f#	8f#	8ee	8D	8f#	8ee
8DD	8f#	8f#	8a	8D	8f#	8a
4r	8a	8f#	8f#	8F#	8f#	8dd
.	8a	8f#	8f#	8F#	8f#	8dd
=6	=6	=6	=6	=6	=6	=6
2.r	8b	8g#	8g#	8G#	8e	8dd
.	8b	8g#	8g#	8G#	8e	8dd
.	8f#	8a#	8a#	8A#	8e	8cc#
.	8f#	8a#	8a#	8A#	8e	8cc#
.	8f#	8b	8b	8B	8d	8cc#
.	8f#	8b	8b	8B	8d	8f#
8B	8f#	8dd	8b	8B	8dd	8b
8B	8f#	8dd	8b	8B	8dd	8b
=7	=7	=7	=7	=7	=7	=7
8B	8g#	8cc#	8e#	8B	8cc#	8e#
8B	8g#	8cc#	8e#	8B	8cc#	8e#
8A	8f#	8cc#	8f#	8A	8cc#	8f#
8B	8f#	8dd	8f#	8B	8dd	8f#
8c#	8c#	8g#	8f#	8c#	8g#	8f#
8c#	8c#	8g#	8f#	8c#	8g#	8f#
8C#	8g#	8cc#	8e#	8C#	8cc#	8e#
8C#	8g#	8cc#	8e#	8C#	8cc#	8e#
=8	=8	=8	=8	=8	=8	=8
4F#	8a	8cc#	8dd	8F#	8cc#	8dd
.	8a	8cc#	8dd	8F#	8cc#	8dd
2r	8f#	8f#	8f#	8F#	8b	8dd
.	8f#	8f#	8f#	8F#	8b	8dd
.	8g#	8e#	8e#	8E#	8b	8cc#
.	8g#	8e#	8e#	8E#	8b	8cc#
8F#	8f#	8f#	8f#	8F#	8a	8cc#
8F#	8f#	8f#	8f#	8F#	8a	8cc#
=9	=9	=9	=9	=9	=9	=9
4BB	8f#	8B	8B	8BB	8a	8dd#
.	8f#	8B	8B	8BB	8a	8dd#
2r	8e	8e	8e	8E	8g	8ee
.	8e	8e	8e	8E	8g	8ee
.	8e	8A	8A	8AA	8g	8cc#
.	8e	8A	8A	8AA	8g	8cc#
8D	8a	8f#	8f#	8D	8f#	8dd
8D	8a	8f#	8f#	8D	8f#	8dd
=10	=10	=10	=10	=10	=10	=10
4GG#	8b	8g#	8g#	8G#	8e	8dd
.	8b	8g#	8g#	8G#	8e	8dd
2r	8f#	8a#	8a#	8A#	8e	8cc#
.	8f#	8a#	8a#	8A#	8e	8cc#
.	8f#	8b	8b	8B	8d	8cc#
.	8f#	8b	8b	8B	8d	8f#
8D	8b	8d	8d	8D	8dd	8ff#
8D	8b	8d	8d	8D	8dd	8ff#
=11	=11	=11	=11	=11	=11	=11
8G	8b	8g	8g	8G	8b	8ff#
8GG	8g	8g	8g	8G	8b	8b
2r	8e	8c#	8c#	8C#	8b	8ee
.	8e	8c#	8c#	8C#	8b	8ee
.	8c#	8f#	8f#	8F#	8a#	8ee
.	8c#	8f#	8f#	8F#	8a#	8ee
8BB	8d	8B	8B	8BB	8b	8dd
8BB	8d	8B	8B	8BB	8b	8dd
=12	=12	=12	=12	=12	=12	=12
8E	8B	8e	8e	8E	8g#	8dd
8EE	8B	8e	8e	8E	8g#	8dd
2r	8e	8e	8e	8e	8g#	8cc#
.	8g#	8e	8e	8e	8g#	8b
.	8cc#	8e	8e	8e	8f#	8a#
.	8f#	8e	8e	8e	8f#	8a#
8D	8b	8f#	8b	8d	8f#	8b
8E	8B	8g	8b	8e	8g	8b
=13	=13	=13	=13	=13	=13	=13
4F#	4f#	4d	4b	4f#	4d	4b
4FF#	4f#	4c#	4a#	4F#	4c#	4a#
4BB	4f#	4d	4b	4BB	4d	4b
4r	4r	4r	4r	4r	4r	4r
=14	=14	=14	=14	=14	=14	=14
4AA	4f#	4c#	4f#	4AA	4c#	4f#
4r	4r	4r	4r	4r	4r	4r
4GG	4B	4B	4e	4GG	4B	4e
4r	4r	4r	4r	4r	4r	4r
=15	=15	=15	=15	=15	=15	=15
1FF#	1c#	1A#	1f#	1FF#	1A#	1f#
==	==	==	==	==	==	==
*-	*-	*-	*-	*-	*-	*-
!!!RWG: This file only contains pitch and duration data.
!!!RWG: Transposing instruments are not transposed.
!!!RWG: Durations of rests and tied notes may be interpreted.
!!!RWG: Key is interpreted using the Humdrum key tool.
!!!SCA: 
!!!YOR: Chrysander Edition
!!!AGN: concerto grosso
!!!AFT: stage1
!!!ENC: F. Bennion
!!!END: 1997/04/15
!!!AST: baroque
!!!YEC: Copyright 1994, Center for Computer Assisted Research in the Humanities
!!!YEM: Rights to all derivative electronic formats reserved.
!!!YEM: Refer to licensing agreement for further details.
!!!YEN: United States of America
!!!EED: W.B. Hewlett
!!!KEY: 869953847
!!!EMD: Converted from MuseData to Humdrum Aug 9, 1999, by Bret Aarden using muse2kern.
!!!VTS: 2609107208
